!!!COM: Josephine Lang
!!!CNT: Deutsch
!!!TXO: Deutsch
!!!OTL: "Fee'n-Reigen"
!!!LYR: von Matthison
!!!OPS: Op. 3
!!!ONM: No. 4
!!!ENC: Alyona Dzerbina, edited by LVH
!!!YOR: Josephine Lang: Selected Songs
!!!YOR: Da Capo Press, 1982
!!!ODT: 1830/
!!NB: Vocal melody only encoded.
**kern	**text
*staff1	*staff1
*clefG2	*
*k[f#c#]	*
*M3/4	*
*MM[Rasch und zierlich.]	*
4r	.
=1	=1
2.r	.
=2	=2
2.r	.
=3	=3
2.r	.
=4	=4
2.r	.
=5	=5
2.r	.
=6	=6
2.r	.
=7	=7
2.r	.
=8	=8
2.r	.
=9	=9
2.r	.
=10	=10
2.r	.
=11	=11
2.r	.
=12	=12
2.r	.
=13	=13
2.r	.
=14	=14
2.r	.
=15	=15
2.r	.
=16	=16
2.r	.
=17	=17
2.r	.
=18	=18
4r	.
4r	.
{4a	{Die
=19!|:	=19!|:
(8dd	sil-
8cc#)	|
(8dd	ber
8cc#)	|
(8dd	-nen
8ee)	|
=20	=20
4ff#	Glo2ck-
4dd	-chen
4a	der
=21	=21
(8a	Blu-
8b-)	|
(8a	-me
8b-)	|
(8a	des
8bn)	|
=22	=22
2cc#	Mai's
4a	sie
=23	=23
(8dd	la2u-
8cc#)	|
(8dd	-ten
8cc#)	|
(8dd	zum
8ee)	|
=24	=24
[2.ff#	Reih'n,
=25	=25
4ff#]}	|}
4r	.
{4b	{sie
=26	=26
[2.cc#	la2-
=27	=27
4cc#]	|
4dd	-ten
4cc#	zum
=28	=28
[2.b	Reih'n!
=29	=29
4b]}	|}
4r	.
4r	.
=30	=30
2.r	.
=31	=31
4r	.
4r	.
{4a	{Her-
=32	=32
4f#	-bei!
4f#	In
4f#	den
=33	=33
2f#	Kreis,
4f#	ihr
=34	=34
4.g	schwa2r-
8g	-men-
4cc#	-den
=35	=35
4ee}	Fey'n!}
4r	.
{4a	{Auf!
=36	=36
4f#	pur-
4f#	-pur-
4f#	-ne
=37	=37
4.f#	Flo2ck-
8f#	-chen
4f#	und
=38	=38
4g	wei-
4g	-sse
4cc#	zu
=39	=39
4ee}	streu'n!}
4r	.
{4a	{Wo
=40	=40
4ff#	Mond-
4ee	-schein
4dd	die
=41	=41
4dd	duf-
4cc#	-ti-
4b	-ge
=42	=42
4a	Pri-
4b	-mel
4a	um-
=43	=43
(4b	-bebt,
4a)}	|}
{4a	{da
=44	=44
4b	wer-
4b	-de
8ff#	der
8ee	|
=45	=45
4.a	luf-
8a	-ti-
4a	-ge
=46	=46
4b	Rei-
4b	-gen
8ff#	ge-
8ee	|
=47	=47
4a}	-webt,}
4r	.
{4a	{da
=48	=48
4a	wer-
4a#	-de
4b	der
=49	=49
4cc#	luf-
4dd	-ti-
4b	-ge
=50	=50
(2.a	Rei-
=51	=51
4e)	|
4f#	-gen
4e	ge-
=52	=52
2.d}	-webt!}
=53	=53
2.r	.
=54	=54
2.r	.
=55	=55
2.r	.
=56	=56
2.r	.
=57	=57
2.r	.
=58	=58
2.r	.
=59	=59
2.r	.
=60	=60
2.r	.
=61	=61
2.r	.
=62	=62
2.r	.
=63	=63
2.r	.
=64	=64
2.r	.
=65	=65
2.r	.
=66	=66
2.r	.
=67	=67
2.r	.
=68	=68
2.r	.
=69	=69
2.r	.
=70	=70
2.r	.
=71	=71
2.r	.
=72	=72
2.r	.
=73	=73
2.r	.
==	==
*-	*-
